X: 18
T:We Won't Go Home, JG (See Cuckoo's Nest, No 14)
M:6/8
L:1/8
Q:1/8=240
S:JG
A:Bidford
P:A.(A)6.(C)5(6)
K:G
GA|B2B BAB|c3B2B|A2A AGA|B3G2G|B2B BAB|c2d e2e|d2c B2A|G3G2||

